X: 23
T:Herb Reid's
R:Polka
O:Ne
M:2/4
L:1/8
K:D
|:DF/G/ AF|EF GB|AB cd|ed cA|
DF/G/ AF|EF GB|AB ce|d2 d2:||
|:df fe|dc BA|Be ed|cB Ac|
df fe|dc BA|Bc/d/ cd/e/|d2 d2:|
